X:1
T:Alltshellach
R:Strathspey
C:Violet J.C. Palmer
B:RSCDS Book 23
Z:Jenny Beer
M:C
L:1/8
K:G Minor
d \
| "Gm"g2 dB "Cm7"A>G "D"^F<A A>d \
| "Gm"g2 dB "D"A>d "Gm"B<G G :|
F \
| "Bb"B>B B>B B>d f>d |  "C"c>d c>B "F"A<F F2 \
| "Bb"F<F F>G "Gm"B>c d>B | "C"c>d =e>c "F"f4 ||
y \
| "Bb"B>B B>B B>d f>d | "C"c>d c>B "F"A<F F2 \
| "Bb"D>E F>G F>G B>d | "Cm"c>B "F7"c>d "Bb"B3 |]
